X: 22
T:Miss Forbes' Farewell to Banff
% Nottingham Music Database
%P:AAB
S:Athole p147, via PR
M:4/4
L:1/4
K:G
|:G/2A/2|"G"BB/2d/2 "D7"c/2B/2A/2G/2|"G"Bd "C"e/2f/2g/2e/2|\
"G"dd/2e/2 d/2B/2A/2G/2|"Am"BA "D7"AG/2A/2|
"G"BB/2d/2 "D7"c/2B/2A/2G/2|"G"Bd "C"e/2f/2g/2e/2|\
"G/d"dd/2e/2 "D7"d/2B/2G/2A/2|"G"BG G:|

d2/3e2/3f2/3|"G"g/2f/2g/2a/2 g/2f/2e/2d/2|"C"e/2d/2e/2f/2 gf/2e/2|\
"G"dd/2e/2 d/2B/2A/2G/2|
"Am"BA "D7"A d2/3e2/3f2/3|"G"g/2f/2g/2a/2 g/2f/2e/2d/2|"C"e/2d/2e/2f/2 gf/2e/2|\
"G/d"dd/2e/2 "D7"d/2B/2G/2A/2|
"G"BG "D7"G d2/3e2/3f2/3|"G"g/2f/2g/2a/2 g/2f/2e/2d/2|"C"e/2d/2e/2f/2 gf/2e/2|\
"G"dd/2e/2 d/2B/2A/2G/2|
"Am"BA "D7"AG/2A/2|"G"BB/2d/2 "D7"c/2B/2A/2G/2|"G"Bd "C"e/2f/2g/2e/2|\
"G/d"dd/2e/2 "D7"d/2B/2G/2A/2|"G"BG G||


